X:570
T:P.J. McNamara's
M:C
L:1/8
K:D
D2 ED FA dB|A2 FD EB, CE|D2 ED FA dB|AFEG FD DB|
d4 B3 B|AGFD EB,CE|D2 ED FA dB|AFEG FDDB ||
Aded fded|Aded AFEF|Aded fded|AFDE FE EB|
Aded fded|Aded AFEf|g3 e f3 e|d3 B AFEF||
D2 ED FA dB|A2 FD EB, CE|D2 ED FA dB|AFEG FDDA|
dDdD BDBB|AGFD EB,CE|D2 ED FA dB|AGFD EDDB||
Addd edfd|Addd AFEF|Addd edfd|AFDE FE EB|
Addd edfd|Addd AFEf|g3 e f3 e|d3 B AFEF |>|
